Origami/64x64/apps/pencil.svg

<svg width="64" height="64" version="1.1" viewBox="0 0 64 64" xmlns="http://www.w3.org/2000/svg">
 <circle cx="32" cy="32" r="28" style="fill:#cccccc"/>
 <path d="m38 22-14 7.2v29.62a28 28 0 0 0 8 1.18 28 28 0 0 0 20 -8.442v-22.358l-14-7.2z" style="fill-rule:evenodd;fill:#4e4e4e"/>
 <path d="m38 24-12 6.602v28.726a28 28 0 0 0 6 0.672 28 28 0 0 0 18 -6.59v-22.808l-12-6.602z" style="fill-rule:evenodd;fill:#fea332"/>
 <path d="m42 30a4 2 0 0 1 -2 1.73204 4 2 0 0 1 -4 0 4 2 0 0 1 -2 -1.732" style="fill:#4e4e4e"/>
 <path d="M 31.999023,4 A 28.000977,28 0 0 0 4,32 28.000977,28 0 0 0 4.0175787,32.492188 28.000977,28 0 0 1 31.999023,5 l 0.002,0 A 28.000977,28 0 0 1 59.974608,32.5 28.000977,28 0 0 0 60,32 28.000977,28 0 0 0 32.000977,4 l -0.002,0 z" style="fill:#ffffff;opacity:.2"/>
 <path d="M 59.957031 32.828125 A 28 28 0 0 1 32 60 A 28 28 0 0 1 4.0449219 33.171875 A 28 28 0 0 0 4 34 A 28 28 0 0 0 4.0253906 34.519531 A 28 28 0 0 1 4.0449219 34.171875 A 28 28 0 0 0 32 61 A 28 28 0 0 0 59.957031 33.828125 A 28 28 0 0 1 59.982422 34.507812 A 28 28 0 0 0 60 34 A 28 28 0 0 0 59.957031 32.828125 z" style="opacity:.2"/>
</svg>

<svg xmlns="http://www.w3.org/2000/svg" width="64" height="64" version="1.1" viewBox="0 0 64 64">
 <circle style="fill:#cccccc" cx="32" cy="32" r="28"/>
 <path style="fill:#4e4e4e;fill-rule:evenodd" d="m 38,22 -14,7.2 0,29.62 A 28,28 0 0 0 32,60 28,28 0 0 0 52,51.558 L 52,29.2 38,22 Z"/>
 <path style="fill:#fea332;fill-rule:evenodd" d="m 38,24 -12,6.602 0,28.726 A 28,28 0 0 0 32,60 28,28 0 0 0 50,53.41 L 50,30.602 38,24 Z"/>
 <path style="fill:#4e4e4e" d="m 42,30 a 4,2 0 0 1 -2,1.73204 4,2 0 0 1 -4,0 4,2 0 0 1 -2,-1.732"/>
 <path style="opacity:0.2;fill:#ffffff" d="M 31.999023,4 A 28.000977,28 0 0 0 4,32 28.000977,28 0 0 0 4.0175787,32.492188 28.000977,28 0 0 1 31.999023,5 l 0.002,0 A 28.000977,28 0 0 1 59.974608,32.5 28.000977,28 0 0 0 60,32 28.000977,28 0 0 0 32.000977,4 l -0.002,0 z"/>
 <path style="opacity:0.2" d="M 59.957031 32.828125 A 28 28 0 0 1 32 60 A 28 28 0 0 1 4.0449219 33.171875 A 28 28 0 0 0 4 34 A 28 28 0 0 0 4.0253906 34.519531 A 28 28 0 0 1 4.0449219 34.171875 A 28 28 0 0 0 32 61 A 28 28 0 0 0 59.957031 33.828125 A 28 28 0 0 1 59.982422 34.507812 A 28 28 0 0 0 60 34 A 28 28 0 0 0 59.957031 32.828125 z"/>
</svg>
